X:605
%%etbk:tnset id:345,pos:1,rep:3x,ant:
%%etbk:pldat 2014-12-06T17:01,2014-09-04T17:54,2014-09-03T18:02,2014-09-02T18:00,2014-09-01T17:54,2014-08-31T11:52,2014-08-28T17:59,2014-08-27T18:02,2014-08-26T15:20,2014-08-25T18:58,2014-08-24T16:56,2014-08-24T10:41,2014-08-20T18:04
T: Hundred Pipers (G)
Z: Piano Box Version by Martin Fleischmann
H: Created 2014-08-20 /  Last Modified 2014-08-30
R: jig
M: 6/8
L: 1/8
K:Gmaj
|"G"!5!B2!1!D !1!DED|"C"!2!E2!3!G !1!G2!5!e| "G"!4!d2!3!B !3!BAG| "D"B2A AGA|
"G"!3!B2!1!D DED| "C"!2!E2!3!G !1!G2!5!e| "G"!4!d2!3!B "D"!2!ABA| "G"G3 B2c|
"G"!5!d2!3!d dBd| "C"!4!e2!5!g g2!4!e| "G"!3!!5!d2!3!B !3!BAG| "D"B2A ABc|
"G"!5!d2!3!d dBd| "C"!4!e2!5!g g2!4!e| "G"!3!!5!d2!3!B "D"!2!ABA|"G"!1!G3 G2A||


